X: 8986
T: Cuttlefish, The
R: waltz
M: 3/4
K: Gmajor
|:BG Bc dg|f2- fg dg|e2- ed c2|B2- BA G2|
E2- EG dE|F2- FA dA|B2- BA G2|A2- A2- A2|
BG Bc dg|a2- af df|g2- gd c2|B2- BA G2|
E2- EG dE|F2- FA dA|G2- GA G2|1 G2- G2- G2:|2 G2- G2 AB||
|:c2- cd g2|g2- g2 dc|B2- Bd g2|g2- g2 cB|
A2- AF D2|G2- GE D2|D2- DE G2|A2- A2 AB|
c2- cd g2|g2- g2 dc|B2- Bd af|g2- g2 cB|
A2- AF D2|G2- GE D2|B2- BG D2|A2- A2- A2||

